wp_data/wp-content/themes/eurostone/assets/images/icon_phone.svg

<svg width="34" height="34" viewBox="0 0 34 34" fill="none" xmlns="http://www.w3.org/2000/svg">
<circle cx="17" cy="17" r="17" fill="#FF2B2B"/>
<path d="M7.28577 12.6403C7.31404 12.4157 7.32998 12.1885 7.37367 11.9669C7.48369 11.4148 7.72993 10.9264 8.12474 10.5229C8.64652 9.98924 9.15031 9.4325 9.7122 8.94362C10.5681 8.19924 11.4971 8.20335 12.3206 8.97549C13.1971 9.79698 14.0376 10.6596 14.8571 11.5392C15.4652 12.1921 15.459 13.1935 14.8689 13.8654C14.4309 14.3635 13.9487 14.8231 13.4783 15.2919C13.3873 15.3824 13.3698 15.4415 13.4295 15.5618C13.9004 16.5149 14.5656 17.3246 15.2848 18.0936C16.0225 18.8822 16.8337 19.587 17.7462 20.1684C18.0058 20.334 18.2839 20.4707 18.5728 20.6316C18.927 20.2733 19.2632 19.9119 19.623 19.5757C19.8847 19.3315 20.1536 19.0776 20.462 18.9043C21.1097 18.5404 21.9004 18.6324 22.4355 19.1475C23.3331 20.0121 24.2183 20.8912 25.0722 21.798C25.7071 22.472 25.7122 23.4924 25.0984 24.1905C24.5602 24.8028 23.9844 25.3842 23.3989 25.9518C22.9512 26.3856 22.3898 26.6159 21.7693 26.6961C21.7266 26.7018 21.6855 26.7193 21.6433 26.7316C21.4028 26.7316 21.1622 26.7316 20.9216 26.7316C20.8799 26.7203 20.8383 26.7059 20.7962 26.6977C20.3864 26.6231 19.97 26.5758 19.568 26.4705C18.142 26.0967 16.8414 25.4336 15.6055 24.6512C12.5057 22.6894 10.1204 20.0661 8.45477 16.7966C7.98645 15.878 7.61991 14.9156 7.41891 13.8988C7.35414 13.5718 7.32895 13.2372 7.28577 12.9061C7.28577 12.8177 7.28577 12.7287 7.28577 12.6403ZM8.40388 12.8028C8.42444 13.0228 8.44192 13.2433 8.4666 13.4634C8.4779 13.5636 8.50258 13.6623 8.52469 13.761C8.82491 15.1022 9.38679 16.3365 10.1034 17.4988C12.0096 20.5915 14.5466 23.0097 17.8212 24.6213C18.8293 25.1174 19.8698 25.5179 21.0049 25.6166C21.7045 25.6772 22.3194 25.5112 22.818 24.9904C23.2293 24.5607 23.6498 24.1402 24.0646 23.714C24.1263 23.6508 24.186 23.5844 24.2399 23.5145C24.5062 23.168 24.5073 22.8056 24.2127 22.4807C23.915 22.1533 23.5953 21.8453 23.2827 21.5318C22.7959 21.0429 22.3106 20.553 21.8176 20.0702C21.4608 19.7207 21.0815 19.7186 20.7072 20.0492C20.6502 20.0995 20.5962 20.153 20.5427 20.2065C20.1083 20.6398 19.6765 21.0763 19.239 21.5071C18.9347 21.8063 18.5954 21.8787 18.2335 21.6988C17.8659 21.5163 17.5004 21.3246 17.1539 21.1056C15.9685 20.3555 14.946 19.4148 14.0273 18.3594C13.3986 17.6371 12.8244 16.8753 12.4167 16.0019C12.0713 15.2631 12.1176 15.0616 12.7103 14.49C13.1339 14.0818 13.5549 13.67 13.9585 13.2418C14.2885 12.8917 14.2782 12.5406 13.9672 12.1735C13.9302 12.1304 13.8921 12.0877 13.852 12.0476C13.1143 11.3084 12.3777 10.5686 11.6374 9.83194C11.5531 9.74814 11.457 9.66949 11.3531 9.61294C11.0282 9.43507 10.6972 9.51115 10.362 9.84068C9.9425 10.2535 9.53741 10.6807 9.11073 11.0863C8.61568 11.5561 8.38023 12.1216 8.40388 12.8028Z" fill="white"/>
<path d="M18.0936 7.28572C18.3265 7.33353 18.6077 7.37928 18.8827 7.4492C20.5679 7.87639 22.0654 8.65984 23.3593 9.82525C24.702 11.0343 25.6896 12.4846 26.272 14.1959C26.4545 14.7321 26.5728 15.2914 26.6987 15.8451C26.7707 16.1607 26.5866 16.4172 26.2849 16.4856C26.0011 16.5499 25.723 16.3931 25.6397 16.097C25.5528 15.787 25.4999 15.4677 25.4151 15.1577C24.8429 13.0685 23.6672 11.387 21.9425 10.0915C20.8141 9.24383 19.5464 8.69223 18.1579 8.42491C18.0525 8.40486 17.9456 8.38481 17.8458 8.34677C17.5991 8.25321 17.4598 7.9936 17.5065 7.73451C17.5533 7.48158 17.7867 7.28726 18.0936 7.28572Z" fill="white"/>
<path d="M17.9466 10.8164C18.4488 10.8935 18.9722 11.0369 19.4672 11.2677C21.4937 12.2111 22.7337 13.779 23.1824 15.9705C23.2488 16.2954 23.0735 16.5848 22.7702 16.6573C22.4818 16.7257 22.1995 16.5468 22.1049 16.2347C21.9785 15.8188 21.8973 15.3819 21.7184 14.9901C20.955 13.3168 19.6569 12.2954 17.853 11.9216C17.5256 11.8538 17.3487 11.6631 17.3456 11.3788C17.341 11.058 17.5867 10.8123 17.9466 10.8164Z" fill="white"/>
</svg>

<svg width="34" height="34" fill="none" xmlns="http://www.w3.org/2000/svg"><circle cx="17" cy="17" r="17" fill="#FF2B2B"/><path d="M7.286 12.64c.028-.224.044-.452.088-.673a2.81 2.81 0 01.75-1.444c.523-.534 1.026-1.09 1.588-1.58.856-.744 1.785-.74 2.609.032a53.283 53.283 0 012.536 2.564c.608.653.602 1.655.012 2.326-.438.498-.92.958-1.39 1.427-.092.09-.11.15-.05.27.471.953 1.137 1.763 1.856 2.532a12.794 12.794 0 002.461 2.074c.26.166.538.303.827.464.354-.359.69-.72 1.05-1.056.262-.245.53-.498.839-.672a1.653 1.653 0 011.974.244 76.713 76.713 0 012.636 2.65c.635.674.64 1.694.026 2.393a30.697 30.697 0 01-1.7 1.76c-.447.435-1.008.665-1.629.745-.042.006-.083.023-.126.036h-.721c-.042-.012-.084-.026-.126-.034-.41-.075-.826-.122-1.228-.227-1.426-.374-2.727-1.037-3.963-1.82-3.1-1.962-5.485-4.585-7.15-7.854-.469-.919-.835-1.881-1.036-2.898-.065-.327-.09-.662-.133-.993v-.266zm1.118.163c.02.22.038.44.063.66.01.1.036.2.058.298.3 1.341.862 2.576 1.578 3.738 1.907 3.093 4.444 5.51 7.718 7.122 1.008.496 2.049.897 3.184.996.7.06 1.314-.106 1.813-.627.411-.43.832-.85 1.247-1.276.061-.063.121-.13.175-.2.266-.346.267-.708-.027-1.033-.298-.328-.618-.636-.93-.95-.487-.488-.972-.978-1.465-1.46-.357-.35-.737-.352-1.11-.022a3.65 3.65 0 00-.165.157c-.435.434-.866.87-1.304 1.301-.304.3-.644.372-1.006.192a12.008 12.008 0 01-1.08-.593c-1.184-.75-2.207-1.691-3.126-2.747-.628-.722-1.203-1.484-1.61-2.357-.346-.739-.3-.94.293-1.512.424-.408.845-.82 1.248-1.248.33-.35.32-.701.01-1.069a2.252 2.252 0 00-.116-.125c-.738-.74-1.474-1.48-2.215-2.216a1.286 1.286 0 00-.284-.22c-.325-.177-.656-.1-.991.229-.42.413-.825.84-1.251 1.245a2.16 2.16 0 00-.707 1.717zm9.69-5.517c.232.048.514.093.789.163a10.404 10.404 0 014.476 2.376c1.343 1.21 2.33 2.66 2.913 4.37.183.537.3 1.096.427 1.65.072.316-.112.572-.414.64a.536.536 0 01-.645-.388c-.087-.31-.14-.63-.225-.94-.572-2.088-1.748-3.77-3.473-5.066a9.082 9.082 0 00-3.784-1.666c-.106-.02-.212-.04-.312-.078a.548.548 0 01-.34-.612c.047-.253.28-.448.588-.45zm-.147 3.53a5.64 5.64 0 011.52.452c2.027.943 3.267 2.511 3.715 4.702.067.325-.108.615-.412.687-.288.069-.57-.11-.665-.422-.127-.416-.208-.853-.387-1.245-.763-1.673-2.061-2.695-3.865-3.068-.327-.068-.504-.259-.507-.543-.005-.321.24-.567.6-.563z" fill="#fff"/></svg>
